frontend/public/svg/finance/wallet.svg

<svg width="161" height="118" viewBox="0 0 161 118" fill="none" xmlns="http://www.w3.org/2000/svg">
<g clip-path="url(#clip0)">
<path d="M83.4857 116.738C66.2358 116.381 52.7572 116.271 39.2944 115.76C31.5693 115.467 23.8516 114.677 16.1672 113.795C13.289 113.355 10.4801 112.543 7.81067 111.38C3.71975 109.764 1.46567 106.523 0.846084 102.191C0.59962 100.64 0.479636 99.0705 0.487148 97.4992C0.718617 86.3881 0.985058 75.2776 1.2861 64.1672C1.53813 54.6285 1.8166 45.0916 2.12159 35.5567C2.29945 30.1859 2.43986 24.8073 2.86189 19.4535C3.43356 12.2023 6.83798 6.9279 14.1161 4.75148C16.1278 4.05309 18.2048 3.55971 20.3157 3.27873C28.4714 2.5712 36.6358 1.70866 44.8105 1.5262C65.9136 1.05495 87.0207 0.775662 108.132 0.688151C118.802 0.529683 129.469 1.16944 140.044 2.60204C143.369 3.09461 146.661 3.79202 149.901 4.69044C151.883 5.16616 153.694 6.1842 155.13 7.63047C156.566 9.07678 157.572 10.8943 158.034 12.8796C158.675 15.0254 159.072 17.2368 159.215 19.4718C159.562 31.3659 159.9 43.264 159.959 55.1621C160.025 68.6413 159.388 82.1035 156.604 95.3392C155.685 99.6973 154.069 103.913 152.691 108.168C151.815 110.871 149.621 112.195 147.103 113.097C142.187 114.857 137.061 115.482 131.898 115.675C114.508 116.325 97.1211 117.212 83.4857 116.738ZM150.153 73.8172C149.676 73.722 149.194 73.6597 148.709 73.6289C140.749 74.0496 132.791 74.7591 124.828 74.8359C116.755 74.9133 108.662 74.6304 100.615 74.0154C93.8001 73.495 90.687 70.3399 89.0423 63.7392C87.7401 58.5095 87.9554 53.2286 88.8145 48.0199C89.9218 41.3043 92.7223 38.5994 99.543 37.3038C107.807 35.6594 116.215 34.8526 124.641 34.8957C132.054 34.9948 139.466 35.1136 146.879 35.1963C148.056 35.2095 149.236 35.075 150.838 34.9844C150.483 28.9034 150.217 23.2025 149.788 17.5147C149.601 15.0396 148.287 13.4033 145.609 13.0331C140.392 12.3111 135.208 11.0215 129.976 10.8016C116.517 10.2339 103.039 9.89004 89.568 9.88873C73.957 9.88873 58.3453 10.3047 42.7363 10.6322C38.0323 10.7307 33.3265 11.0359 28.6376 11.4336C25.178 11.727 21.7342 12.2601 18.3015 12.8016C13.3133 13.5892 10.7477 17.0375 9.74352 21.5551C8.98486 25.0656 8.59781 28.646 8.5885 32.2376C8.43819 53.9125 8.4355 75.588 8.38759 97.2636C8.38759 98.0512 8.38759 98.8388 8.45322 99.6205C8.66653 102.073 9.71077 103.895 12.2698 104.552C13.679 104.913 15.0553 105.45 16.4835 105.679C25.5954 107.144 34.7873 107.523 44.0003 107.72C73.7607 108.356 103.52 109.178 133.262 107.081C137.076 106.813 140.819 106.377 144.172 104.836C148.159 94.7721 149.591 84.5063 150.153 73.8172ZM150.577 42.2764C140.196 42.5507 130.099 42.6144 120.024 43.1585C113.658 43.5031 107.311 44.4455 100.99 45.3552C97.7853 45.8146 97.0036 46.6331 96.8186 49.6693C96.5534 53.6941 96.5494 57.7318 96.8067 61.7571C97.0542 65.3433 97.9553 66.0036 101.632 66.6441C102.957 66.8745 104.294 67.0471 105.633 67.1797C116.856 68.2954 128.069 67.4612 139.283 67.0484C143.055 66.908 146.818 66.5233 150.473 66.2608C151.534 61.7492 151.544 46.2151 150.576 42.2764H150.577Z" fill="black"/>
<path d="M112.146 48.3051C116.46 47.4518 119.169 51.424 119.15 54.9636C119.128 58.9745 116.218 61.8999 112.127 61.9813C107.82 62.0666 104.042 58.779 104.142 55.0313C104.245 51.0926 107.568 48.3024 112.146 48.3051Z" fill="black"/>
</g>
<defs>
<clipPath id="clip0">
<rect width="160.146" height="116.828" fill="white" transform="translate(0.143555 0.423828)"/>
</clipPath>
</defs>
</svg>

<svg xmlns="http://www.w3.org/2000/svg" width="161" height="118" fill="none" viewBox="0 0 161 118"><g fill="#000" clip-path="url(#a)"><path d="M83.486 116.738c-17.25-.357-30.729-.467-44.192-.978-7.725-.293-15.442-1.083-23.127-1.965a33.7 33.7 0 0 1-8.356-2.415c-4.091-1.616-6.345-4.857-6.965-9.189a29 29 0 0 1-.359-4.692q.347-16.665.8-33.332.377-14.307.835-28.61c.177-5.371.318-10.75.74-16.104.572-7.25 3.976-12.525 11.254-14.702a31.6 31.6 0 0 1 6.2-1.472c8.155-.708 16.32-1.57 24.495-1.753Q76.465.82 108.131.688c10.67-.158 21.337.481 31.912 1.914A82 82 0 0 1 149.9 4.69a10.98 10.98 0 0 1 8.133 8.19 29.7 29.7 0 0 1 1.181 6.592c.347 11.894.685 23.792.744 35.69.066 13.48-.571 26.941-3.355 40.177-.919 4.358-2.535 8.574-3.913 12.829-.876 2.703-3.07 4.027-5.588 4.929-4.916 1.76-10.042 2.385-15.205 2.578-17.39.65-34.777 1.537-48.412 1.063m66.667-42.92a11 11 0 0 0-1.444-.19c-7.96.422-15.918 1.131-23.881 1.208a283 283 0 0 1-24.213-.82c-6.815-.521-9.928-3.676-11.573-10.277-1.302-5.23-1.087-10.51-.228-15.72 1.108-6.715 3.908-9.42 10.729-10.715a125.3 125.3 0 0 1 25.098-2.408c7.413.099 14.825.218 22.238.3 1.177.014 2.357-.121 3.959-.212-.355-6.08-.621-11.782-1.05-17.47-.187-2.474-1.501-4.11-4.179-4.48-5.217-.723-10.401-2.013-15.633-2.232-13.459-.568-26.937-.912-40.408-.913-15.611 0-31.223.416-46.832.743-4.704.099-9.41.404-14.098.802-3.46.293-6.904.826-10.336 1.368-4.989.787-7.554 4.236-8.558 8.753a51.2 51.2 0 0 0-1.155 10.683c-.15 21.675-.154 43.35-.201 65.026 0 .787 0 1.575.065 2.357.214 2.452 1.258 4.274 3.817 4.931 1.409.361 2.785.898 4.214 1.127 9.111 1.465 18.303 1.844 27.516 2.041 29.76.636 59.52 1.458 89.262-.639 3.814-.268 7.557-.704 10.91-2.245 3.987-10.064 5.419-20.33 5.981-31.019m.424-31.542c-10.381.275-20.478.338-30.553.882-6.366.345-12.713 1.288-19.034 2.197-3.205.46-3.986 1.278-4.171 4.314a93 93 0 0 0-.012 12.088c.247 3.586 1.148 4.247 4.825 4.887 1.325.23 2.662.403 4.001.536 11.223 1.115 22.436.281 33.65-.132 3.772-.14 7.535-.525 11.19-.787 1.061-4.512 1.071-20.046.103-23.985z"/><path d="M112.146 48.305c4.314-.853 7.023 3.119 7.004 6.659-.022 4.01-2.932 6.936-7.023 7.017-4.307.086-8.085-3.202-7.985-6.95.103-3.938 3.426-6.729 8.004-6.726"/></g><defs><clipPath id="a"><path fill="#fff" d="M.144.424H160.29v116.828H.144z"/></clipPath></defs></svg>
